src/assets/images/play.svg

<svg enable-background="new 0 0 485 485" viewBox="0 0 485 485" xmlns="http://www.w3.org/2000/svg"><path d="m413.974 71.026c-45.803-45.801-106.7-71.026-171.474-71.026s-125.671 25.225-171.474 71.026c-45.801 45.803-71.026 106.7-71.026 171.474s25.225 125.671 71.026 171.474c45.803 45.801 106.7 71.026 171.474 71.026s125.671-25.225 171.474-71.026c45.801-45.803 71.026-106.7 71.026-171.474s-25.225-125.671-71.026-171.474zm-171.474 383.974c-117.173 0-212.5-95.327-212.5-212.5s95.327-212.5 212.5-212.5 212.5 95.327 212.5 212.5-95.327 212.5-212.5 212.5z"/><path d="m181.062 336.575 162.876-94.075-162.876-94.075z"/></svg>

<?xml version="1.0" encoding="iso-8859-1"?>
<!-- Generator: Adobe Illustrator 19.0.0, SVG Export Plug-In . SVG Version: 6.00 Build 0)  -->
<svg version="1.1" id="Layer_1" xmlns="http://www.w3.org/2000/svg" xmlns:xlink="http://www.w3.org/1999/xlink" x="0px" y="0px"
	 viewBox="0 0 485 485" style="enable-background:new 0 0 485 485;" xml:space="preserve">
<g>
	<path d="M413.974,71.026C368.171,25.225,307.274,0,242.5,0S116.829,25.225,71.026,71.026C25.225,116.829,0,177.726,0,242.5
		s25.225,125.671,71.026,171.474C116.829,459.775,177.726,485,242.5,485s125.671-25.225,171.474-71.026
		C459.775,368.171,485,307.274,485,242.5S459.775,116.829,413.974,71.026z M242.5,455C125.327,455,30,359.673,30,242.5
		S125.327,30,242.5,30S455,125.327,455,242.5S359.673,455,242.5,455z"/>
	<polygon points="181.062,336.575 343.938,242.5 181.062,148.425 	"/>
</g>
<g>
</g>
<g>
</g>
<g>
</g>
<g>
</g>
<g>
</g>
<g>
</g>
<g>
</g>
<g>
</g>
<g>
</g>
<g>
</g>
<g>
</g>
<g>
</g>
<g>
</g>
<g>
</g>
<g>
</g>
</svg>
